X: 32473
T: PK's
R: reel
M: 4/4
K: Dmajor
~D2Ad BAFA|ddcd efge|~a2ba gece|Ad~d2 fgfe|
ad~d2 BAFA|BdAF ~E2DE|FEDB, A,D~D2|1 Adcd BdAF:|2 Adcd ~e2de||
~f2ag fede|~f2fe dBAF|DF~F2 AF~F2|~G2FG ~E2dB|
AFDF BAFA|ddcd efge|df~f2 af~f2|1 defd gece:|2 defd BAFA||

